apps/docs/public/icons/cust/langchain.svg

<svg width="240" height="41" viewBox="0 0 240 41" fill="none" xmlns="http://www.w3.org/2000/svg">
<g clip-path="url(#clip0_102_2)">
<path d="M61.5139 11.1569C60.4527 11.1569 59.4549 11.568 58.708 12.3148L55.6899 15.3248C54.8757 16.1368 54.4574 17.2643 54.5431 18.4202C54.5492 18.4833 54.5553 18.5464 54.5615 18.6115C54.6696 19.4988 55.0594 20.2986 55.6899 20.9254C56.1246 21.3589 56.6041 21.6337 57.1857 21.825C57.2163 22 57.2326 22.177 57.2326 22.3541C57.2326 23.1519 56.9225 23.9008 56.3592 24.4625L56.1735 24.6477C55.1655 24.3037 54.3247 23.8011 53.5656 23.044C52.5576 22.0386 51.8903 20.7687 51.6393 19.3747L51.6046 19.1813L51.4515 19.3055C51.3475 19.3889 51.2495 19.4785 51.1577 19.57L48.1396 22.58C46.5928 24.1226 46.5928 26.636 48.1396 28.1786C48.913 28.9499 49.9292 29.3366 50.9475 29.3366C51.9658 29.3366 52.98 28.9499 53.7534 28.1786L56.7715 25.1687C58.3183 23.626 58.3183 21.1147 56.7715 19.57C56.3592 19.159 55.8675 18.8496 55.3104 18.6502C55.2798 18.469 55.2634 18.2879 55.2634 18.1109C55.2634 17.2439 55.6063 16.4217 56.2348 15.7949C57.2449 16.1388 58.1407 16.6965 58.8978 17.4515C59.9038 18.4548 60.5691 19.7227 60.8241 21.1208L60.8588 21.3141L61.0119 21.19C61.116 21.1066 61.2139 21.017 61.3078 20.9234L64.3259 17.9135C65.8727 16.3708 65.8747 13.8575 64.3259 12.3148C63.577 11.568 62.5811 11.1569 61.518 11.1569H61.5139Z" fill="white"/>
<path d="M59.8966 0.148926H20.4063C9.15426 0.148926 0 9.27847 0 20.5002C0 31.7218 9.15426 40.8514 20.4063 40.8514H59.8966C71.1486 40.8514 80.3029 31.7218 80.3029 20.5002C80.3029 9.27847 71.1486 0.148926 59.8966 0.148926ZM40.4188 32.0556C39.7678 32.1899 39.0352 32.2143 38.5373 31.6954C38.3536 32.1166 37.9251 31.8948 37.5945 31.8399C37.5639 31.9253 37.5374 32.0006 37.5088 32.0861C36.4089 32.1594 35.5845 31.0401 35.0601 30.1955C34.0193 29.6338 32.8378 29.2919 31.7746 28.7037C31.7134 29.6725 31.9257 30.8732 31.0012 31.498C30.9543 33.3601 33.8255 31.7178 34.0887 33.1057C33.8847 33.1281 33.6582 33.0731 33.4949 33.2298C32.746 33.9564 31.8869 32.6804 31.0237 33.2075C29.8646 33.7895 29.7483 34.2657 28.3137 34.3858C28.2342 34.2657 28.2668 34.1863 28.3341 34.1131C28.7382 33.645 28.7668 33.0935 29.4565 32.894C28.7464 32.7821 28.1525 33.1729 27.5546 33.4822C26.7771 33.7997 26.7833 32.7658 25.5875 33.5371C25.4548 33.4293 25.5181 33.3316 25.5936 33.2482C25.8976 32.8778 26.2976 32.8228 26.7486 32.8432C24.5304 31.6099 23.4856 34.3512 22.4612 32.9877C22.1531 33.0691 22.0368 33.3458 21.8429 33.5412C21.6756 33.3581 21.8021 33.1362 21.8103 32.9205C21.6103 32.8269 21.3572 32.7821 21.4164 32.4626C21.0246 32.3303 20.7512 32.5623 20.4594 32.7821C20.1961 32.5786 20.6369 32.2815 20.7185 32.0698C20.9532 31.6628 21.4878 31.9864 21.7592 31.6933C22.5306 31.2558 23.606 31.966 24.4876 31.846C25.1671 31.9314 26.0078 31.2354 25.667 30.5414C24.9406 29.6155 25.0691 28.4046 25.0528 27.2975C24.963 26.6523 23.4101 25.8301 22.9612 25.1341C22.4061 24.5073 21.9735 23.7808 21.5409 23.0665C19.9798 20.0524 20.4716 16.1796 18.5044 13.3813C17.6147 13.8718 16.4556 13.6398 15.6884 12.9824C15.2741 13.3589 15.2557 13.8514 15.2231 14.3745C14.2293 13.3834 14.3538 11.511 15.1476 10.408C15.4721 9.97245 15.8598 9.61427 16.2924 9.29882C16.3903 9.2276 16.423 9.1584 16.4209 9.0485C17.2066 5.52368 22.5653 6.20341 24.259 8.7005C25.4875 10.2371 25.8589 12.2701 27.2526 13.6968C29.1279 15.7441 31.2645 17.5472 32.9949 19.7268C34.6315 21.7192 35.8008 24.0555 36.8211 26.4102C37.2374 27.1916 37.2415 28.1502 37.8578 28.8177C38.1618 29.2207 39.6474 30.3176 39.325 30.7063C39.5107 31.1092 40.8983 31.6648 40.4167 32.0556H40.4188ZM66.4449 20.0321L63.4269 23.042C62.6228 23.8439 61.6291 24.4422 60.5516 24.7698L60.4965 24.7861L60.4761 24.839C60.1251 25.763 59.5925 26.5872 58.8905 27.2853L55.8724 30.2952C54.5562 31.6079 52.8054 32.3303 50.9402 32.3303C49.0751 32.3303 47.3242 31.6079 46.008 30.2952C43.2879 27.5824 43.2879 23.1702 46.008 20.4574L49.0261 17.4475C49.8342 16.6416 50.8015 16.0616 51.8973 15.7258L51.9524 15.7095L51.9728 15.6566C52.3238 14.7326 52.8584 13.9064 53.5625 13.2022L56.5805 10.1923C57.8967 8.87959 59.6476 8.15712 61.5127 8.15712C63.3779 8.15712 65.1287 8.87959 66.4449 10.1923C67.7612 11.5049 68.4856 13.2511 68.4856 15.1112C68.4856 16.9713 67.7612 18.7194 66.4449 20.0301V20.0321Z" fill="white"/>
<path d="M28.1422 28.4126C27.8769 29.4424 27.7912 31.1946 26.4485 31.2455C26.3383 31.8398 26.8607 32.0636 27.3382 31.8723C27.8096 31.6566 28.034 32.0433 28.1932 32.4279C28.9217 32.5337 29.9992 32.1857 30.04 31.3249C28.9523 30.7001 28.6156 29.5116 28.1442 28.4106L28.1422 28.4126Z" fill="white"/>
<path d="M99.2089 10.8162H95.624V32.5623H111V29.0983H99.2089V10.8162Z" fill="white"/>
<path d="M129.021 32.5624H132.606V32.5237H132.653L132.66 32.364C132.661 32.3173 132.674 31.8822 132.608 31.2115V23.1182C132.608 20.0733 134.828 18.6871 136.891 18.6871C139.11 18.6871 140.19 19.8831 140.19 22.3445V32.5624H143.775V21.8674C143.775 17.8054 141.194 15.2812 137.041 15.2812C135.276 15.2812 133.701 15.7825 132.464 16.7351L132.431 15.5794H129.026V32.5624H129.021Z" fill="white"/>
<path d="M158.365 16.827C157.119 15.8147 155.517 15.2812 153.71 15.2812C148.876 15.2812 145.873 18.6146 145.873 23.9806C145.873 29.3467 148.876 32.7107 153.71 32.7107C155.415 32.7107 156.937 32.2465 158.136 31.3631C158.033 33.9953 156.384 35.5588 153.681 35.5588C151.408 35.5588 150.122 34.8351 149.858 33.4086L149.825 33.2313L146.342 34.2935L146.373 34.437C146.961 37.2723 149.614 38.9647 153.473 38.9647C156.091 38.9647 158.144 38.2523 159.577 36.8451C161.023 35.4267 161.755 33.3827 161.755 30.7715V15.5794H158.439L158.367 16.827H158.365ZM158.141 24.1306C158.141 27.3705 156.563 29.3063 153.918 29.3063C151.083 29.3063 149.458 27.3656 149.458 23.9823C149.458 20.5989 151.084 18.6871 153.918 18.6871C156.499 18.6871 158.115 20.6133 158.141 23.713V24.1306Z" fill="white"/>
<path d="M179.418 25.6665C178.675 28.0698 176.767 29.3948 174.047 29.3948C170.158 29.3948 167.74 26.4418 167.74 21.6884C167.74 16.9349 170.179 13.9819 174.107 13.9819C176.825 13.9819 178.391 15.0474 179.188 17.4346L179.56 18.5516L182.945 16.9623L182.627 16.0677C181.338 12.4361 178.361 10.5179 174.018 10.5179C171.067 10.5179 168.562 11.5834 166.773 13.5983C165.003 15.5938 164.066 18.3904 164.066 21.69C164.066 28.476 167.983 32.862 174.047 32.862C178.32 32.862 181.63 30.6263 182.9 26.8803L183.224 25.9228L179.747 24.601L179.416 25.6681L179.418 25.6665Z" fill="white"/>
<path d="M192.806 15.2813C191.094 15.2813 189.571 15.7504 188.375 16.6418V8.73218H184.79V32.564H188.375V23.12C188.375 20.0558 190.594 18.6599 192.658 18.6599C194.877 18.6599 195.957 19.8559 195.957 22.3172V32.5657H199.542V21.8401C199.542 17.8571 196.899 15.2846 192.808 15.2846L192.806 15.2813Z" fill="white"/>
<path d="M220.496 8.21948C219.164 8.21948 218.197 9.18662 218.197 10.518C218.197 11.8494 219.164 12.8166 220.496 12.8166C221.827 12.8166 222.794 11.8494 222.794 10.518C222.794 9.18662 221.827 8.21948 220.496 8.21948Z" fill="white"/>
<path d="M233.262 15.2812C231.497 15.2812 229.923 15.7825 228.686 16.7351L228.652 15.5794H225.248V32.5624H228.833V23.1182C228.833 20.0733 231.052 18.6871 233.116 18.6871C235.335 18.6871 236.415 19.8831 236.415 22.3445V32.5624H240V21.8674C240 17.8054 237.419 15.2812 233.266 15.2812H233.262Z" fill="white"/>
<path d="M222.237 15.5794H218.67V23.9984C217.68 23.1666 216.514 22.5381 215.198 22.1271V21.271C215.198 17.5202 212.736 15.2812 208.611 15.2812C205.26 15.2812 202.754 16.8545 201.733 19.5963L201.458 20.3361L204.332 22.4543L204.825 21.1695C205.475 19.4755 206.679 18.6856 208.611 18.6856C210.544 18.6856 211.613 19.6156 211.613 21.4483V21.5436C211.498 21.5387 211.382 21.5354 211.266 21.5338C207.428 21.4725 204.628 22.3705 202.944 24.1982C201.221 26.068 201.372 28.1684 201.395 28.4004L201.411 28.5616H201.427C201.695 31.1777 203.98 32.8573 207.301 32.8573C209.13 32.8573 210.82 32.348 212.098 31.4179L212.112 32.5607H215.198V27.2479L215.131 27.1996C214.695 26.8805 213.934 26.4678 212.789 26.3228C212.43 26.2776 212.087 26.255 211.771 26.2615H211.611V26.75C211.611 27.8735 210.32 29.4546 207.448 29.4546C205.328 29.4546 205.012 28.5632 205.012 28.0313V27.9765C205.028 27.738 205.128 27.1544 205.655 26.6112C206.324 25.9198 207.83 25.1107 211.207 25.1623C213.652 25.2009 215.528 25.8843 216.784 27.1947C218.325 28.8034 218.615 31.0053 218.668 31.8676V32.5624H222.235V15.5794H222.237Z" fill="white"/>
<path d="M119.752 15.2072C116.401 15.2072 113.895 16.7804 112.874 19.5222L112.599 20.2621L115.473 22.3801L115.966 21.0954C116.616 19.4013 117.82 18.6115 119.752 18.6115C121.685 18.6115 122.754 19.5416 122.754 21.3743V21.8047L119.062 22.4559C114.734 23.2215 112.539 25.072 112.539 27.954C112.539 30.8361 114.855 32.7833 118.44 32.7833C120.27 32.7833 121.959 32.2739 123.237 31.3438L123.252 32.4867H126.337V21.197C126.337 17.4461 123.876 15.2072 119.752 15.2072ZM122.754 25.1639V26.6774C122.754 27.8009 121.462 29.3822 118.59 29.3822C116.47 29.3822 116.155 28.4908 116.155 27.9589C116.155 27.4866 116.155 26.3808 119.91 25.6845L122.754 25.1655V25.1639Z" fill="white"/>
</g>
<defs>
<clipPath id="clip0_102_2">
<rect width="240" height="41" fill="white"/>
</clipPath>
</defs>
</svg>

<svg xmlns="http://www.w3.org/2000/svg" width="240" height="41" fill="none" viewBox="0 0 240 41"><g fill="#fff" clip-path="url(#a)"><path d="M61.514 11.157a3.94 3.94 0 0 0-2.806 1.158l-3.018 3.01a3.95 3.95 0 0 0-1.147 3.095l.019.191a3.9 3.9 0 0 0 1.128 2.314c.435.434.914.709 1.496.9q.046.263.047.53c0 .797-.31 1.546-.874 2.107l-.186.186c-1.008-.344-1.848-.847-2.607-1.604a6.9 6.9 0 0 1-1.927-3.67l-.034-.193-.153.124a4 4 0 0 0-.294.265l-3.018 3.01a3.957 3.957 0 0 0 2.807 6.757 3.96 3.96 0 0 0 2.806-1.158l3.019-3.01a3.96 3.96 0 0 0 0-5.599 3.9 3.9 0 0 0-1.462-.92 3.252 3.252 0 0 1 .924-2.855 6.9 6.9 0 0 1 2.664 1.656 6.9 6.9 0 0 1 1.926 3.67l.035.193.153-.124q.155-.125.296-.267l3.018-3.01a3.956 3.956 0 0 0-2.808-6.756z"/><path d="M59.897.149h-39.49C9.153.149 0 9.279 0 20.5c0 11.222 9.154 20.351 20.406 20.351h39.49c11.253 0 20.407-9.13 20.407-20.35C80.303 9.277 71.149.148 59.897.148M40.419 32.056c-.651.134-1.384.158-1.882-.36-.183.42-.612.199-.943.144-.03.085-.057.16-.085.246-1.1.073-1.925-1.046-2.449-1.89-1.04-.562-2.222-.904-3.285-1.492-.062.968.15 2.17-.774 2.794-.047 1.862 2.824.22 3.088 1.608-.204.022-.43-.033-.594.124-.749.726-1.608-.55-2.471-.022-1.16.581-1.276 1.058-2.71 1.178-.08-.12-.047-.2.02-.273.404-.468.433-1.02 1.122-1.219-.71-.112-1.303.279-1.901.588-.778.318-.772-.716-1.968.055-.132-.108-.069-.205.007-.289.304-.37.704-.425 1.155-.405-2.219-1.233-3.263 1.508-4.288.145-.308.081-.424.358-.618.553-.167-.183-.04-.405-.033-.62-.2-.094-.453-.139-.394-.458-.391-.133-.665.1-.957.32-.263-.204.178-.502.26-.713.234-.407.769-.084 1.04-.377.772-.437 1.847.273 2.729.153.68.085 1.52-.61 1.179-1.305-.726-.925-.598-2.136-.614-3.244-.09-.645-1.643-1.467-2.092-2.163-.555-.627-.987-1.353-1.42-2.067-1.561-3.015-1.07-6.887-3.037-9.686-.89.49-2.048.259-2.816-.399-.414.377-.432.87-.465 1.393-.994-.992-.87-2.864-.075-3.967a5.3 5.3 0 0 1 1.144-1.11c.098-.07.131-.14.129-.25.786-3.524 6.144-2.845 7.838-.348 1.229 1.537 1.6 3.57 2.994 4.997 1.875 2.047 4.012 3.85 5.742 6.03 1.637 1.992 2.806 4.328 3.826 6.683.416.782.42 1.74 1.037 2.408.304.403 1.79 1.5 1.467 1.888.186.403 1.573.959 1.092 1.35zm26.026-12.024-3.018 3.01a6.96 6.96 0 0 1-2.875 1.728l-.056.016-.02.053a6.9 6.9 0 0 1-1.585 2.446l-3.019 3.01a6.94 6.94 0 0 1-4.932 2.035 6.94 6.94 0 0 1-4.932-2.035 6.95 6.95 0 0 1 0-9.838l3.018-3.01a6.9 6.9 0 0 1 2.871-1.721l.055-.017.02-.052a6.9 6.9 0 0 1 1.59-2.455l3.019-3.01a6.94 6.94 0 0 1 4.932-2.035c1.865 0 3.616.723 4.932 2.035a6.9 6.9 0 0 1 2.04 4.92c0 1.86-.724 3.607-2.04 4.918z"/><path d="M28.142 28.413c-.265 1.03-.35 2.782-1.694 2.832-.11.595.413.819.89.627.472-.215.696.171.855.556.729.106 1.806-.242 1.847-1.103-1.088-.625-1.424-1.813-1.896-2.914zM99.209 10.816h-3.585v21.746H111v-3.464H99.209zM129.021 32.562h3.585v-.038h.047l.007-.16c.001-.047.014-.482-.052-1.152v-8.094c0-3.045 2.22-4.43 4.283-4.43 2.219 0 3.299 1.195 3.299 3.657v10.217h3.585V21.867c0-4.062-2.581-6.586-6.734-6.586-1.765 0-3.34.502-4.577 1.454l-.033-1.156h-3.405v16.983zM158.365 16.827c-1.246-1.012-2.848-1.546-4.655-1.546-4.834 0-7.837 3.334-7.837 8.7s3.003 8.73 7.837 8.73c1.705 0 3.227-.465 4.426-1.348-.103 2.632-1.752 4.196-4.455 4.196-2.273 0-3.559-.724-3.823-2.15l-.033-.178-3.483 1.063.031.143c.588 2.835 3.241 4.528 7.1 4.528 2.618 0 4.671-.713 6.104-2.12 1.446-1.418 2.178-3.462 2.178-6.073V15.579h-3.316l-.072 1.248zm-.224 7.304c0 3.24-1.578 5.175-4.223 5.175-2.835 0-4.46-1.94-4.46-5.324s1.626-5.295 4.46-5.295c2.581 0 4.197 1.926 4.223 5.026zM179.418 25.667c-.743 2.403-2.651 3.728-5.371 3.728-3.889 0-6.307-2.953-6.307-7.707s2.439-7.706 6.367-7.706c2.718 0 4.284 1.065 5.081 3.453l.372 1.117 3.385-1.59-.318-.894c-1.289-3.632-4.266-5.55-8.609-5.55-2.951 0-5.456 1.065-7.245 3.08-1.77 1.996-2.707 4.792-2.707 8.092 0 6.786 3.917 11.172 9.981 11.172 4.273 0 7.583-2.236 8.853-5.982l.324-.957-3.477-1.322-.331 1.067zM192.806 15.281c-1.712 0-3.235.47-4.431 1.36V8.733h-3.585v23.832h3.585V23.12c0-3.064 2.219-4.46 4.283-4.46 2.219 0 3.299 1.196 3.299 3.657v10.249h3.585V21.84c0-3.983-2.643-6.555-6.734-6.555zM220.496 8.22c-1.332 0-2.299.967-2.299 2.298s.967 2.299 2.299 2.299 2.298-.968 2.298-2.299-.967-2.299-2.298-2.299M233.262 15.281c-1.765 0-3.339.502-4.576 1.454l-.034-1.156h-3.404v16.983h3.585v-9.444c0-3.045 2.219-4.43 4.283-4.43 2.219 0 3.299 1.195 3.299 3.657v10.217H240V21.867c0-4.062-2.581-6.586-6.734-6.586zM222.237 15.58h-3.567v8.418c-.99-.831-2.156-1.46-3.472-1.87v-.857c0-3.75-2.462-5.99-6.587-5.99-3.351 0-5.857 1.574-6.878 4.315l-.275.74 2.874 2.118.493-1.285c.65-1.694 1.854-2.483 3.786-2.483 1.933 0 3.002.93 3.002 2.762v.096a12 12 0 0 0-.347-.01c-3.838-.061-6.638.837-8.322 2.664-1.723 1.87-1.572 3.97-1.549 4.202l.016.162h.016c.268 2.616 2.553 4.295 5.874 4.295 1.829 0 3.519-.509 4.797-1.44l.014 1.144h3.086v-5.313l-.067-.048c-.436-.32-1.197-.732-2.342-.877a7 7 0 0 0-1.018-.061h-.16v.488c0 1.124-1.291 2.705-4.163 2.705-2.12 0-2.436-.892-2.436-1.424v-.054c.016-.239.116-.823.643-1.366.669-.691 2.175-1.5 5.552-1.449 2.445.039 4.321.722 5.577 2.033 1.541 1.608 1.831 3.81 1.884 4.673v.694h3.567V15.58zM119.752 15.207c-3.351 0-5.857 1.573-6.878 4.315l-.275.74 2.874 2.118.493-1.285c.65-1.694 1.854-2.483 3.786-2.483 1.933 0 3.002.93 3.002 2.762v.43l-3.692.652c-4.328.765-6.523 2.616-6.523 5.498s2.316 4.83 5.901 4.83c1.83 0 3.519-.51 4.797-1.44l.015 1.143h3.085v-11.29c0-3.75-2.461-5.99-6.585-5.99m3.002 9.957v1.513c0 1.124-1.292 2.705-4.164 2.705-2.12 0-2.435-.891-2.435-1.423 0-.472 0-1.578 3.755-2.274l2.844-.52z"/></g><defs><clipPath id="a"><path fill="#fff" d="M0 0h240v41H0z"/></clipPath></defs></svg>
